svg/u1f4da.svg

<svg viewBox="0 0 128 128" xmlns="http://www.w3.org/2000/svg">
  <g>
    <g>
      <path d="M118.03,102.32L72.29,123c-2.82,1.33-5.76,1.2-8.46-0.36L6.09,93.32 c-1.65-1.06-2.14-2.61-2.04-3.69c0.1-1.08,0.35-2.25,3.25-3.09l4.28-1.58l57.92,31.57l41.16-16.82L118.03,102.32z" fill="#01579B"/>
      <path d="M71.74,119.69c-2.32,1.09-5.03,0.99-7.26-0.26L8.11,91.03c-0.8-0.44-1.04-1.45-0.56-2.23 c1.24-2.05,3.52-8.53-0.24-13.91l63.66,30.65L71.74,119.69z" fill="#F5F5F5"/>
      <path d="M115.59,99.98c0,0-43.83,19.7-43.85,19.71c-1.45,0.63-4.34,1.75-7.67-0.49 c2.63,0.19,4.48-0.9,5.43-2.67c0.93-1.72,0.65-4.54-0.48-6.13c-0.69-0.96-2.54-2.49-3.35-3.35l47.43-18.55 c4.2-1.73,8.14,0.86,8.77,4.01C122.57,96.07,118.03,98.98,115.59,99.98z" fill="#94C6D6"/>
      <path d="M117.78,86.96l-45.27,20.2c-2.85,1.13-6.04,0.98-8.77-0.4L5.9,77.38c-0.56-0.28-1.39-1.05-1.72-2.1 c-0.54-1.75,0.14-3.95,2.19-4.65l62.68,31.95l42.92-18.37L117.78,86.96z" fill="#01579B"/>
      <path d="M121.19,89.89l-4.93-1.79l-10.16,0.59l-33.58,14.99c-2.85,1.13-6.04,0.98-8.77-0.4L5.9,73.91 c-1.49-0.76-1.17-2.97,0.47-3.28l41.69-18.65c1.19-0.22,2.41-0.09,3.52,0.38l59.49,28.36C111.07,80.72,120.52,87.19,121.19,89.89z " fill="#0091EA"/>
      <path d="M105.53,88.98c0,0,6.26-2.45,11.18-2.23c4.92,0.22,6.63,3.67,6.63,3.67 c-0.93-4.23-5.3-6.39-5.3-6.39l-65-32.73c-0.45-0.19-2.11-0.58-4.66,0.47c-2.06,0.85-8.79,4-8.79,4L105.53,88.98z" fill="#616161"/>
      <path d="M123.62,91.22c-0.47-1.87-1.63-3.87-3.77-4.84c-2.82-1.27-6.84-0.94-9.41,0.4l-4.91,2.18v3.46 l6.21-2.76c6.04-2.69,8.72,1.34,8.95,2.29c0.96,3.87-0.9,6.11-6.39,8.63l-8.92,4.02v3.48l10.26-4.57 C120.18,101.69,125.36,98.27,123.62,91.22z" fill="#424242"/>
    </g>
    <polygon points="33.01,90.31 15.74,66.44 18.45,65.23 37.88,91.93 " fill="#01579B"/>
    <polygon points="55.16,101.31 52.08,98.87 105.53,87.96 105.53,89.71 98.04,92.55 " fill="#01579B"/>
    <g>
      <path d="M14.8,46.18L82.31,34.9l29.49,32.47c1.49,1.57,0.68,4.17-1.44,4.6l-69.7,14.3L14.8,46.18z" fill="#9CCC65"/>
      <path d="M110.36,69.17L41.14,83.19l-0.22,3.3l69.44-14.24c1.96-0.41,2.78-2.65,1.71-4.23 C111.69,68.58,111.11,69.02,110.36,69.17z" fill="#689F38"/>
      <path d="M114.09,84.3c0.73,1.16,0.07,2.69-1.27,2.96L49.1,100.18c-3.83,0.79-7.59-1.72-7.93-5.62v0 c-0.29-3.3,1.94-6.29,5.19-6.97l61.28-13.76L114.09,84.3z" fill="#689F38"/>
      <path d="M55.59,80.1L30.21,43.78l-14.48,3.83c-3.35,3.33-2.1,8.8-2.1,8.8S35.8,91.99,39.3,96.54 c3.5,4.55,8.61,3.84,8.61,3.84l8.63-1.74l-0.9-16.1L55.59,80.1z" fill="#616161"/>
      <path d="M55.59,80.34L43.4,82.86c-3.33,0.75-3.93,3.88-3.93,3.88L10.04,44.57c0,0-4.19,5.07-1.41,9.38 L39.3,96.54c3.35,4.77,8.61,3.88,8.61,3.88l8.63-1.74L55.65,82.9L55.59,80.34z" fill="#424242"/>
      <path d="M110.25,83c0.31,0.68-0.09,1.47-0.82,1.62l-60.93,12.5c-3.83,0.79-6.54-1.75-6.4-5.21 c0.18-4.37,2.63-6.22,5.87-6.89l61.23-12.51c0,0-2.08,2.34-0.49,6.72C109.25,80.74,109.83,82.08,110.25,83z" fill="#B9E4EA"/>
      <line fill="none" stroke="#424242" stroke-width="2.071" stroke-miterlimit="10" x1="45.21" x2="19.1" y1="83.7" y2="46.76"/>
    </g>
    <polygon points="47.26,67.95 13.68,51.03 12.32,53.71 51.12,73.48 " fill="#424242"/>
    <polygon points="108.79,64.03 106.33,61.33 68.5,78.69 47.26,68.18 50.88,73.36 64.95,80.55 75.43,78.94 " fill="#689F38"/>
    <g>
      <path d="M118.02,57.35L72.29,78.03c-2.82,1.33-5.76,1.2-8.46-0.36L6.09,48.35 c-1.65-1.06-2.14-2.61-2.04-3.69s0.35-2.25,3.25-3.09l2.71-1l59.32,29.11l48.17-19.93L118.02,57.35z" fill="#C62828"/>
      <path d="M71.73,74.72c-2.32,1.09-5.03,0.99-7.26-0.26L8.1,46.06c-0.8-0.44-1.04-1.45-0.56-2.23 c1.24-2.05,3.52-8.53-0.24-13.91l62.24,31.66L71.73,74.72z" fill="#F5F5F5"/>
      <path d="M115.58,55.01c0,0-43.83,19.7-43.85,19.71c-1.45,0.63-4.34,1.75-7.67-0.49 c2.63,0.19,4.48-0.9,5.43-2.67c0.93-1.72,0.65-4.54-0.48-6.13c-0.69-0.96-2.54-2.49-3.35-3.35l47.43-18.55 c4.2-1.73,8.14,0.86,8.77,4.01C122.56,51.1,118.02,54.01,115.58,55.01z" fill="#94C6D6"/>
      <path d="M117.78,41.99l-45.27,20.2c-2.85,1.13-6.04,0.98-8.77-0.4L5.89,32.41c-0.6-0.3-1.5-1.07-1.79-2.16 c-0.43-1.62,0.13-3.75,2.26-4.59l53.01-11.23L117.78,41.99z" fill="#C62828"/>
      <path d="M121.18,44.92l-4.93-1.79l-10.16,0.59L72.51,58.71c-2.85,1.13-6.04,0.98-8.77-0.4L5.89,28.93 c-1.49-0.76-0.96-2.77,0.47-3.28L48.06,7.01c1.19-0.22,2.41-0.09,3.52,0.38l59.49,28.36C111.07,35.75,120.51,42.21,121.18,44.92z" fill="#F44336"/>
      <path d="M105.53,44c0,0,5.21-1.83,10.13-1.61c4.92,0.22,7.69,3.05,7.69,3.05c-1.01-4.52-5.3-6.39-5.3-6.39 l-65-32.73c-0.45-0.19-2.11-0.58-4.66,0.47c-2.06,0.85-8.79,4-8.79,4L105.53,44z" fill="#616161"/>
      <polygon points="111.48,41.86 44.97,8.31 47.17,7.32 114.81,41.22 " fill="#424242"/>
      <path d="M123.61,46.25c-0.47-1.87-1.26-3.68-3.49-4.62c-2.85-1.2-5.45-1.45-9.69,0.18l-4.91,2.18v3.46 l6.21-2.76c3.15-1.48,7.79-1.16,8.95,2.29c1.27,3.78-0.9,6.11-6.39,8.63l-8.92,4.02v3.48l10.26-4.57 C120.18,56.72,125.36,53.3,123.61,46.25z" fill="#424242"/>
    </g>
  </g>
</svg>

<svg viewBox="0 0 128 128" xmlns="http://www.w3.org/2000/svg">
  <defs/>
  <path d="M118.03,102.32 L72.29,123 C69.47,124.33 66.53,124.2 63.83,122.64 L6.09,93.32 C4.44,92.26 3.95,90.71 4.05,89.63 C4.15,88.55 4.4,87.38 7.3,86.54 L11.58,84.96 L69.5,116.53 L110.66,99.71 L118.03,102.32 Z" fill="#01579B"/>
  <path d="M71.74,119.69 C69.42,120.78 66.71,120.68 64.48,119.43 L8.11,91.03 C7.31,90.59 7.07,89.58 7.55,88.8 C8.79,86.75 11.07,80.27 7.31,74.89 L70.97,105.54 L71.74,119.69 Z" fill="#F5F5F5"/>
  <path d="M115.59,99.98 C115.59,99.98 71.76,119.68 71.74,119.69 C70.29,120.32 67.4,121.44 64.07,119.2 C66.7,119.39 68.55,118.3 69.5,116.53 C70.43,114.81 70.15,111.99 69.02,110.4 C68.33,109.44 66.48,107.91 65.67,107.05 L113.1,88.5 C117.3,86.77 121.24,89.36 121.87,92.51 C122.57,96.07 118.03,98.98 115.59,99.98 Z" fill="#94C6D6"/>
  <path d="M117.78,86.96 L72.51,107.16 C69.66,108.29 66.47,108.14 63.74,106.76 L5.9,77.38 C5.34,77.1 4.51,76.33 4.18,75.28 C3.64,73.53 4.32,71.33 6.37,70.63 L69.05,102.58 L111.97,84.21 L117.78,86.96 Z" fill="#01579B"/>
  <path d="M121.19,89.89 L116.26,88.1 L106.1,88.69 L72.52,103.68 C69.67,104.81 66.48,104.66 63.75,103.28 L5.9,73.91 C4.41,73.15 4.73,70.94 6.37,70.63 L48.06,51.98 C49.25,51.76 50.47,51.89 51.58,52.36 L111.07,80.72 C111.07,80.72 120.52,87.19 121.19,89.89 Z" fill="#0091EA"/>
  <path d="M105.53,88.98 C105.53,88.98 111.79,86.53 116.71,86.75 C121.63,86.97 123.34,90.42 123.34,90.42 C122.41,86.19 118.04,84.03 118.04,84.03 L53.04,51.3 C52.59,51.11 50.93,50.72 48.38,51.77 C46.32,52.62 39.59,55.77 39.59,55.77 L105.53,88.98 Z" fill="#616161"/>
  <path d="M123.62,91.22 C123.15,89.35 121.99,87.35 119.85,86.38 C117.03,85.11 113.01,85.44 110.44,86.78 L105.53,88.96 L105.53,92.42 L111.74,89.66 C117.78,86.97 120.46,91 120.69,91.95 C121.65,95.82 119.79,98.06 114.3,100.58 L105.38,104.6 L105.38,108.08 L115.64,103.51 C120.18,101.69 125.36,98.27 123.62,91.22 Z" fill="#424242"/>
  <path d="M33.01,90.31 L15.74,66.44 L18.45,65.23 L37.88,91.93 Z" fill="#01579B"/>
  <path d="M55.16,101.31 L52.08,98.87 L105.53,87.96 L105.53,89.71 L98.04,92.55 Z" fill="#01579B"/>
  <path d="M14.8,46.18 L82.31,34.9 L111.8,67.37 C113.29,68.94 112.48,71.54 110.36,71.97 L40.66,86.27 L14.8,46.18 Z" fill="#9CCC65"/>
  <path d="M110.36,69.17 L41.14,83.19 L40.92,86.49 L110.36,72.25 C112.32,71.84 113.14,69.6 112.07,68.02 C111.69,68.58 111.11,69.02 110.36,69.17 Z" fill="#689F38"/>
  <path d="M114.09,84.3 C114.82,85.46 114.16,86.99 112.82,87.26 L49.1,100.18 C45.27,100.97 41.51,98.46 41.17,94.56 L41.17,94.56 C40.88,91.26 43.11,88.27 46.36,87.59 L107.64,73.83 L114.09,84.3 Z" fill="#689F38"/>
  <path d="M55.59,80.1 L30.21,43.78 L15.73,47.61 C12.38,50.94 13.63,56.41 13.63,56.41 C13.63,56.41 35.8,91.99 39.3,96.54 C42.8,101.09 47.91,100.38 47.91,100.38 L56.54,98.64 L55.64,82.54 L55.59,80.1 Z" fill="#616161"/>
  <path d="M55.59,80.34 L43.4,82.86 C40.07,83.61 39.47,86.74 39.47,86.74 L10.04,44.57 C10.04,44.57 5.85,49.64 8.63,53.95 L39.3,96.54 C42.65,101.31 47.91,100.42 47.91,100.42 L56.54,98.68 L55.65,82.9 L55.59,80.34 Z" fill="#424242"/>
  <path d="M110.25,83 C110.56,83.68 110.16,84.47 109.43,84.62 L48.5,97.12 C44.67,97.91 41.96,95.37 42.1,91.91 C42.28,87.54 44.73,85.69 47.97,85.02 L109.2,72.51 C109.2,72.51 107.12,74.85 108.71,79.23 C109.25,80.74 109.83,82.08 110.25,83 Z" fill="#B9E4EA"/>
  <path d="M44.364,84.298 L18.254,47.358 L19.946,46.162 L46.056,83.102 L44.364,84.298 Z" fill="#424242"/>
  <path d="M47.26,67.95 L13.68,51.03 L12.32,53.71 L51.12,73.48 Z" fill="#424242"/>
  <path d="M108.79,64.03 L106.33,61.33 L68.5,78.69 L47.26,68.18 L50.88,73.36 L64.95,80.55 L75.43,78.94 Z" fill="#689F38"/>
  <path d="M118.02,57.35 L72.29,78.03 C69.47,79.36 66.53,79.23 63.83,77.67 L6.09,48.35 C4.44,47.29 3.95,45.74 4.05,44.66 C4.15,43.58 4.4,42.41 7.3,41.57 L10.01,40.57 L69.33,69.68 L117.5,49.75 L118.02,57.35 Z" fill="#C62828"/>
  <path d="M71.73,74.72 C69.41,75.81 66.7,75.71 64.47,74.46 L8.1,46.06 C7.3,45.62 7.06,44.61 7.54,43.83 C8.78,41.78 11.06,35.3 7.3,29.92 L69.54,61.58 L71.73,74.72 Z" fill="#F5F5F5"/>
  <path d="M115.58,55.01 C115.58,55.01 71.75,74.71 71.73,74.72 C70.28,75.35 67.39,76.47 64.06,74.23 C66.69,74.42 68.54,73.33 69.49,71.56 C70.42,69.84 70.14,67.02 69.01,65.43 C68.32,64.47 66.47,62.94 65.66,62.08 L113.09,43.53 C117.29,41.8 121.23,44.39 121.86,47.54 C122.56,51.1 118.02,54.01 115.58,55.01 Z" fill="#94C6D6"/>
  <path d="M117.78,41.99 L72.51,62.19 C69.66,63.32 66.47,63.17 63.74,61.79 L5.89,32.41 C5.29,32.11 4.39,31.34 4.1,30.25 C3.67,28.63 4.23,26.5 6.36,25.66 L59.37,14.43 L117.78,41.99 Z" fill="#C62828"/>
  <path d="M121.18,44.92 L116.25,43.13 L106.09,43.72 L72.51,58.71 C69.66,59.84 66.47,59.69 63.74,58.31 L5.89,28.93 C4.4,28.17 4.93,26.16 6.36,25.65 L48.06,7.01 C49.25,6.79 50.47,6.92 51.58,7.39 L111.07,35.75 C111.07,35.75 120.51,42.21 121.18,44.92 Z" fill="#F44336"/>
  <path d="M105.53,44 C105.53,44 110.74,42.17 115.66,42.39 C120.58,42.61 123.35,45.44 123.35,45.44 C122.34,40.92 118.05,39.05 118.05,39.05 L53.05,6.32 C52.6,6.13 50.94,5.74 48.39,6.79 C46.33,7.64 39.6,10.79 39.6,10.79 L105.53,44 Z" fill="#616161"/>
  <path d="M111.48,41.86 L44.97,8.31 L47.17,7.32 L114.81,41.22 Z" fill="#424242"/>
  <path d="M123.61,46.25 C123.14,44.38 122.35,42.57 120.12,41.63 C117.27,40.43 114.67,40.18 110.43,41.81 L105.52,43.99 L105.52,47.45 L111.73,44.69 C114.88,43.21 119.52,43.53 120.68,46.98 C121.95,50.76 119.78,53.09 114.29,55.61 L105.37,59.63 L105.37,63.11 L115.63,58.54 C120.18,56.72 125.36,53.3 123.61,46.25 Z" fill="#424242"/>
</svg>
